images/icons/gamepad.svg

<svg width="73" height="53" viewBox="0 0 73 53" fill="none" xmlns="http://www.w3.org/2000/svg">
<g id="Layer_3" clip-path="url(#clip0_26_697)">
<path id="Vector" d="M6.57886e-06 31.9217C0.111015 30.2685 0.188985 28.1988 0.405716 26.1434C0.577515 24.5215 0.890718 22.9113 1.19863 21.3077C1.46558 19.9175 1.76954 18.5299 2.13824 17.1631C2.46202 15.9655 2.86112 14.7836 3.29855 13.6199C3.79941 12.2843 4.37031 10.9735 4.92799 9.65882C5.1434 9.15116 5.37731 8.64741 5.66144 8.17619C5.78434 7.97313 6.03279 7.79219 6.26406 7.71149C7.23671 7.37305 8.35868 8.08247 8.39569 9.08868C8.4089 9.44274 8.22653 9.81632 8.08248 10.16C7.53273 11.4773 6.91954 12.7712 6.41075 14.1028C5.972 15.2535 5.60726 16.4341 5.27291 17.62C4.90288 18.9308 4.56193 20.2533 4.28441 21.5862C4.02671 22.8241 3.85491 24.0816 3.66857 25.3338C3.2959 27.8474 3.15053 30.3779 3.19547 32.9149C3.23115 34.9403 3.34744 36.9631 3.66065 38.969C3.89852 40.4868 4.12186 42.0085 4.43638 43.5119C4.70069 44.7798 5.08393 46.0242 5.41696 47.279C5.46453 47.4561 5.50947 47.6357 5.57158 47.8075C5.70373 48.1759 5.76716 48.2097 6.14248 48.0809C7.07944 47.7567 7.85518 47.2139 8.43005 46.4069C9.06438 45.5152 9.46613 44.5155 9.67096 43.4625C10.0238 41.6466 10.2723 39.8112 10.6106 37.9928C10.9251 36.3032 11.2119 34.6005 11.6665 32.9448C12.3523 30.4455 13.5549 28.1988 15.5148 26.4103C16.1028 25.874 16.7438 25.3937 17.3266 24.8522C18.5411 23.7249 19.4225 22.379 19.8613 20.7857C20.226 19.4593 20.2194 18.112 19.9776 16.7596C19.8163 15.8653 19.6987 14.9619 19.5587 14.0637C19.3763 12.887 19.2164 11.7064 19.001 10.5349C18.8133 9.51824 17.76 8.86869 16.6473 9.01839C16.1954 9.07957 15.7606 9.24228 15.2835 9.08998C14.6703 8.89473 14.1866 8.25429 14.2091 7.57741C14.2329 6.8745 14.7113 6.21584 15.3469 6.12342C16.05 6.02189 16.7742 5.89042 17.472 5.9529C19.449 6.12863 20.8868 7.15176 21.6678 8.9494C21.9599 9.62237 22.0709 10.3813 22.203 11.1115C22.4436 12.4431 22.6457 13.7813 22.8506 15.1181C22.9907 16.0371 23.247 16.9118 23.7836 17.689C24.443 18.6431 25.376 19.1547 26.5218 19.2965C26.8694 19.3395 27.2248 19.3408 27.5764 19.3408C33.4519 19.3434 39.3287 19.3434 45.2043 19.3408C45.8849 19.3408 46.5654 19.3408 47.2051 19.0349C48.0125 18.6496 48.5676 18.0183 48.9878 17.2698C49.7649 15.8874 50.308 14.4334 50.4388 12.8323C50.5287 11.7454 50.6992 10.6598 50.9133 9.58983C51.2093 8.1033 52.1 7.01638 53.4348 6.27833C54.8422 5.49991 56.3183 5.52595 57.8117 5.95681C58.6231 6.19111 58.9891 7.22466 58.6191 8.00046C58.2385 8.7984 57.4284 9.07696 56.5509 8.7997C55.6272 8.50812 54.4312 9.03791 54.1127 10.1014C53.9488 10.6481 53.8801 11.2235 53.7916 11.7897C53.5008 13.6511 53.1916 15.5099 52.9471 17.3779C52.6921 19.3239 53.1282 21.1384 54.1841 22.8072C54.9017 23.9423 55.8505 24.8691 56.9011 25.6983C58.5715 27.0169 59.8191 28.6453 60.6556 30.5848C61.2291 31.9138 61.6441 33.2884 61.8846 34.7099C62.1978 36.5557 62.4529 38.4106 62.7833 40.2538C63.0304 41.6362 63.2947 43.0225 63.6634 44.3763C63.9977 45.5998 64.5779 46.731 65.7025 47.4665C66.091 47.7203 66.5285 47.9129 66.9619 48.0861C67.295 48.2188 67.3994 48.1225 67.4958 47.7763C67.7628 46.8065 68.0575 45.8446 68.3059 44.8696C68.5227 44.0209 68.7288 43.1657 68.8782 42.304C69.1055 40.9919 69.2905 39.6732 69.4742 38.3546C69.79 36.0845 69.8349 33.8 69.8244 31.5116C69.8151 29.4927 69.6724 27.4829 69.3949 25.4861C69.1861 23.9878 68.9099 22.4948 68.5861 21.0148C68.2663 19.5582 67.8989 18.1081 67.4588 16.6841C67.0254 15.2808 66.4981 13.9049 65.9655 12.533C65.5862 11.5554 65.1237 10.6104 64.714 9.6445C64.4114 8.93117 64.6096 8.20483 65.1924 7.77918C65.766 7.36133 66.6712 7.36654 67.2038 7.8716C67.476 8.12933 67.6663 8.49901 67.8156 8.85047C68.5002 10.4516 69.2204 12.0422 69.8045 13.6784C70.3596 15.234 70.8248 16.8272 71.2173 18.4309C71.6441 20.1739 71.9705 21.9429 72.2864 23.7093C72.9709 27.5363 73.1229 31.401 72.9088 35.2696C72.7925 37.3627 72.5216 39.4533 72.2031 41.5281C71.952 43.1605 71.5582 44.7746 71.1604 46.3809C70.8618 47.5862 70.4561 48.7656 70.0953 49.9553C69.8984 50.6049 69.3843 50.955 68.8081 51.2219C67.0174 52.0471 65.1409 52.5665 63.1546 52.5756C60.2406 52.5886 57.9597 51.4119 56.4042 48.9504C55.7012 47.8362 55.2875 46.6139 54.9664 45.3486C54.4074 43.1435 53.7651 40.9645 52.5136 39.0198C52.0511 38.3013 51.5185 37.6374 50.6926 37.2911C50.5155 37.2169 50.2737 37.1636 50.1071 37.2222C49.0565 37.5944 47.9795 37.7051 46.8681 37.7025C39.782 37.6895 32.696 37.6934 25.6086 37.6999C24.673 37.6999 23.7796 37.5215 22.8955 37.2378C22.7052 37.1766 22.4343 37.213 22.2519 37.3042C21.1181 37.8743 20.4758 38.8844 19.9128 39.9479C19.0816 41.519 18.5424 43.1943 18.1142 44.9086C17.7918 46.1986 17.4231 47.4756 16.7411 48.6432C15.8293 50.2026 14.5923 51.4093 12.8717 52.0575C11.6242 52.5288 10.3185 52.6511 8.98112 52.5261C7.2182 52.3608 5.56893 51.8558 3.98706 51.0878C3.33687 50.7728 3.01574 50.2547 2.8294 49.5999C2.50166 48.4453 2.12767 47.3038 1.81711 46.144C1.57395 45.2354 1.37968 44.3125 1.19731 43.3896C0.963402 42.2011 0.718919 41.0114 0.561657 39.8112C0.379286 38.4158 0.265634 37.0113 0.161233 35.6068C0.0806199 34.5159 0.0594754 33.4212 -0.00527954 31.9112L6.57886e-06 31.9217ZM9.85333 49.2094C9.87448 49.2524 9.8943 49.2953 9.91545 49.3383C10.3013 49.2823 10.6899 49.2446 11.0718 49.1678C12.4819 48.8866 13.4849 48.0952 14.0994 46.813C14.5382 45.8966 14.7602 44.9178 15.0179 43.9441C15.4963 42.1334 16.0764 40.3553 16.9143 38.6696C17.4878 37.5176 18.1658 36.4359 19.1067 35.5326C19.4291 35.2227 19.4093 35.2475 19.1054 34.909C18.5464 34.2855 17.9609 33.6737 17.4957 32.9838C17.0583 32.3343 17.4204 31.3125 18.1023 30.9571C18.8992 30.5406 19.815 30.7801 20.2683 31.496C21.4537 33.3678 23.1585 34.5289 25.4038 34.5459C32.7647 34.6057 40.1269 34.5797 47.4892 34.5498C48.1526 34.5472 48.8385 34.3506 49.4702 34.1254C50.793 33.6542 51.7842 32.756 52.5599 31.6054C53.0964 30.81 53.9158 30.6929 54.6479 31.0105C55.5611 31.4062 55.832 32.4814 55.2215 33.3119C54.747 33.9575 54.2026 34.555 53.67 35.1577C53.5127 35.336 53.4982 35.4466 53.67 35.612C53.9515 35.884 54.2343 36.1587 54.4814 36.462C55.684 37.942 56.4756 39.642 57.0822 41.4188C57.5711 42.8507 57.9147 44.3294 58.3548 45.7782C58.6667 46.8052 59.1517 47.7463 59.9856 48.474C60.7851 49.1704 61.7102 49.5349 62.7872 49.4698C62.8916 49.4633 62.9894 49.3708 63.0899 49.3175C63.0436 49.2381 63.0119 49.1443 62.9471 49.0832C61.6732 47.8609 60.8935 46.3509 60.4838 44.6808C60.1111 43.1592 59.868 41.6049 59.5997 40.0598C59.3393 38.5564 59.1319 37.0451 58.8821 35.5391C58.6746 34.2868 58.3165 33.0763 57.8275 31.9008C57.1126 30.1839 56.0527 28.7325 54.5488 27.5974C52.581 26.1122 51.1578 24.23 50.3635 21.9051C50.2353 21.5303 50.1177 21.1515 49.9829 20.7375C49.8402 20.8273 49.7292 20.8911 49.6235 20.9627C48.4817 21.7411 47.2368 22.159 45.8293 22.1551C39.8322 22.1394 33.8351 22.1486 27.8367 22.1486C27.6715 22.1486 27.5063 22.1447 27.3411 22.1525C25.8346 22.228 24.4457 21.8661 23.1849 21.0512C22.9484 20.8989 22.8466 20.9549 22.7528 21.197C22.4581 21.952 22.1964 22.7239 21.8343 23.4463C21.0718 24.968 20.0199 26.2801 18.6468 27.3189C17.3887 28.2704 16.3817 29.4146 15.6549 30.8074C14.7813 32.4788 14.2857 34.2686 13.9448 36.1001C13.6673 37.5892 13.4651 39.0927 13.247 40.5922C13.0118 42.2115 12.729 43.8165 12.1819 45.3681C11.7114 46.7011 11.0665 47.9273 10.0502 48.9426C9.97227 49.0207 9.91545 49.1196 9.84937 49.2094H9.85333Z" fill="black"/>
<path id="Vector_2" d="M17.4839 0.583496C19.3789 0.648581 20.9 1.14583 22.2731 2.03488C22.8479 2.40717 23.3766 2.60763 24.0915 2.49568C25.3602 2.29782 26.6447 2.17677 27.9266 2.09216C30.23 1.93856 32.5361 1.78105 34.8435 1.72899C36.9751 1.68082 39.112 1.71727 41.2436 1.81099C43.1096 1.893 44.9704 2.09476 46.8311 2.26138C47.7614 2.34469 48.6865 2.47485 49.6169 2.56207C49.7622 2.57509 49.9472 2.51 50.0662 2.41888C50.9371 1.75502 51.9071 1.2773 52.9537 0.972702C54.3242 0.574384 55.721 0.52492 57.1271 0.811292C57.9227 0.972702 58.7235 1.11068 59.5217 1.25907C60.2658 1.39705 61.0111 1.53503 61.7564 1.67301C62.2322 1.76023 62.7079 1.84093 63.1824 1.93205C64.1088 2.10908 64.5449 2.81069 64.3519 3.80779C64.1986 4.60182 63.4348 5.10818 62.6022 4.94416C61.1816 4.6656 59.7702 4.34148 58.3442 4.09416C57.2883 3.91192 56.2509 3.59431 55.1528 3.66851C53.8907 3.75442 52.8004 4.21782 51.8106 4.9728C51.4604 5.23965 51.0732 5.46614 50.6781 5.6627C50.5049 5.74861 50.2657 5.75121 50.0649 5.72778C48.4936 5.54555 46.9249 5.33858 45.3536 5.15894C44.5779 5.07043 43.7995 5.00925 43.0211 4.95718C38.6799 4.6669 34.336 4.65128 29.9961 4.96369C28.2649 5.08865 26.5377 5.28651 24.8117 5.46744C24.2435 5.52602 23.6805 5.62625 23.1175 5.71867C22.5889 5.80588 22.1171 5.69784 21.6929 5.37242C20.9198 4.77755 20.0992 4.25557 19.1648 3.94316C18.4486 3.70365 17.7178 3.62425 16.9592 3.78175C15.8848 4.00564 14.8025 4.18658 13.7228 4.38704C12.9563 4.52892 12.1898 4.66821 11.4246 4.8166C10.8194 4.93375 10.3595 4.64998 9.96039 4.26859C9.59829 3.92364 9.46349 3.47586 9.59829 2.98772C9.79387 2.2783 10.2168 1.86306 11.0097 1.7433C12.4092 1.53113 13.7915 1.21742 15.1844 0.962289C16.0262 0.808689 16.8733 0.685028 17.4852 0.584798L17.4839 0.583496Z" fill="black"/>
<path id="Vector_3" d="M13.9382 21.6722C13.9382 21.9533 13.9223 22.2358 13.9408 22.5169C13.9937 23.3201 13.1915 24.0269 12.5255 24.0295C11.7392 24.0334 10.9819 23.3761 10.9436 22.582C10.9132 21.9546 10.9211 21.3259 10.9357 20.6972C10.9423 20.4212 10.8392 20.3431 10.5709 20.3496C9.94451 20.3626 9.31679 20.3653 8.69038 20.3457C8.05076 20.3262 7.37017 19.7574 7.23406 19.1612C7.07679 18.4726 7.33317 17.8309 7.9675 17.5093C8.23842 17.3714 8.57541 17.3284 8.88597 17.3076C9.3789 17.275 9.87579 17.2828 10.37 17.3037C10.6832 17.3167 10.7718 17.1917 10.7639 16.9028C10.748 16.3508 10.7533 15.7976 10.7625 15.2457C10.7758 14.4452 11.3282 13.7917 12.1184 13.6251C12.9206 13.4559 13.8814 14.1887 13.9236 15.0322C13.954 15.6596 13.9474 16.2884 13.9342 16.9158C13.9289 17.2021 14.0439 17.3037 14.3214 17.2985C14.8157 17.2894 15.3126 17.3128 15.8055 17.2946C16.7068 17.2594 17.2076 17.9962 17.2949 18.5819C17.4138 19.3747 16.9817 20.1205 16.2469 20.3106C15.9575 20.3861 15.6363 20.347 15.3284 20.3522C14.9769 20.3574 14.6241 20.3653 14.2725 20.3509C14.0109 20.3405 13.9223 20.446 13.9355 20.6959C13.9514 21.02 13.9395 21.3454 13.9395 21.6708H13.9382V21.6722Z" fill="black"/>
<path id="Vector_4" d="M62.0788 22.4013C62.0788 23.2591 61.3824 23.9607 60.5234 23.9672C59.671 23.9737 58.9191 23.2356 58.9191 22.3921C58.9191 21.5356 59.6419 20.8444 60.5327 20.8496C61.422 20.8548 62.0788 21.5148 62.0775 22.4013H62.0788Z" fill="black"/>
<path id="Vector_5" d="M65.758 18.8646C65.758 19.7393 65.092 20.4032 64.2026 20.411C63.3264 20.4201 62.5956 19.7159 62.5916 18.8593C62.5877 18.0315 63.3172 17.3142 64.1735 17.3038C65.0589 17.2934 65.758 17.982 65.758 18.8646Z" fill="black"/>
<path id="Vector_6" d="M60.5248 16.8936C59.642 16.8975 58.9125 16.1907 58.9191 15.3381C58.9257 14.5011 59.6526 13.7825 60.4997 13.7747C61.36 13.7669 62.0683 14.4568 62.0789 15.3146C62.0895 16.2141 61.4247 16.8897 60.5248 16.8936Z" fill="black"/>
<path id="Vector_7" d="M56.8377 17.322C57.7192 17.322 58.4262 18.0223 58.4196 18.8906C58.4143 19.7419 57.7112 20.4266 56.8417 20.4292C55.9576 20.4318 55.2558 19.7341 55.2624 18.8619C55.269 18.0067 55.9695 17.322 56.8377 17.322Z" fill="black"/>
<path id="Vector_8" d="M46.1663 33.187C45.9681 33.1961 45.7698 33.2221 45.5743 33.2104C44.7139 33.1636 44.1259 32.445 44.2038 31.5521C44.2844 30.6461 45.006 30.072 45.9311 30.1788C46.6698 30.2634 47.2724 29.9705 47.6173 29.36C48.027 28.6337 47.7574 27.7316 47.0081 27.319C46.2509 26.9024 45.3549 27.1055 44.9558 27.8383C44.8051 28.1143 44.7496 28.4657 44.7391 28.786C44.7047 29.8286 43.8536 30.4912 42.8995 30.3311C41.9163 30.1671 41.4775 29.3079 41.6216 28.4293C41.792 27.3971 42.0643 26.4221 42.7964 25.6268C43.9646 24.3615 45.4038 23.8486 47.1244 24.1194C48.6204 24.355 49.7569 25.1087 50.4811 26.4195C51.0784 27.4986 51.1339 28.648 50.8049 29.8182C50.423 31.1798 49.5587 32.1469 48.2808 32.7717C47.7733 33.0191 47.0729 33.1623 46.1663 33.1857V33.187Z" fill="black"/>
<path id="Vector_9" d="M26.4055 24.0283C28.512 24.1351 30.2815 25.3873 30.8828 27.3659C31.1101 28.113 31.0824 28.7522 30.4388 29.2702C29.5877 29.9549 28.2992 29.5592 27.9939 28.5231C27.8618 28.074 27.7336 27.6275 27.3279 27.3255C26.6301 26.8061 25.565 26.9962 25.0654 27.7329C24.5923 28.4306 24.8143 29.4512 25.5835 29.8781C25.9073 30.0578 26.3064 30.0981 26.6645 30.2218C27.3266 30.4509 27.7865 31.0288 27.7799 31.681C27.7733 32.3448 27.4455 32.846 26.8112 33.0933C26.6024 33.1753 26.3315 33.1844 26.1081 33.1389C24.5276 32.8134 23.3488 31.9621 22.6576 30.5029C21.648 28.3708 22.4501 25.865 24.4721 24.6779C25.0945 24.3121 25.7619 24.0895 26.4041 24.0296L26.4055 24.0283Z" fill="black"/>
<path id="Vector_10" d="M36.3764 26.8321C35.5967 26.8321 34.8144 26.8022 34.036 26.8399C33.136 26.8829 32.5955 25.9548 32.5876 25.2688C32.5797 24.5841 33.2761 23.7823 34.0439 23.7966C35.6033 23.8252 37.1654 23.8018 38.7261 23.807C39.5851 23.8096 40.1943 24.4539 40.1983 25.3443C40.2022 26.1761 39.5798 26.8152 38.7512 26.8321C38.7287 26.8321 38.7076 26.8321 38.6851 26.8321C37.916 26.8321 37.1469 26.8321 36.3777 26.8321H36.3764Z" fill="black"/>
</g>
<defs>
<clipPath id="clip0_26_697">
<rect width="73" height="52" fill="white" transform="translate(0 0.583496)"/>
</clipPath>
</defs>
</svg>

<svg width="73" height="53" fill="none" xmlns="http://www.w3.org/2000/svg"><g clip-path="url(#a)" fill="#000"><path d="M0 31.922c.111-1.654.189-3.723.406-5.779.172-1.622.485-3.232.793-4.835.267-1.39.57-2.778.94-4.145.323-1.197.722-2.38 1.16-3.543.5-1.336 1.071-2.646 1.629-3.961.215-.508.45-1.012.733-1.483.123-.203.372-.384.603-.465.973-.338 2.095.371 2.132 1.378.013.354-.17.727-.314 1.071-.55 1.317-1.162 2.611-1.671 3.943a41.368 41.368 0 0 0-1.138 3.517 58.575 58.575 0 0 0-.989 3.966c-.257 1.238-.43 2.496-.615 3.748a46.06 46.06 0 0 0-.474 7.58c.036 2.026.152 4.05.466 6.055.238 1.518.46 3.04.775 4.543.265 1.268.648 2.512.981 3.767.048.177.092.357.155.528.132.369.195.403.57.274.937-.324 1.713-.867 2.288-1.674a7.51 7.51 0 0 0 1.241-2.944c.353-1.816.601-3.652.94-5.47.314-1.69.6-3.393 1.055-5.048.686-2.5 1.889-4.746 3.849-6.535.588-.536 1.229-1.016 1.812-1.558 1.214-1.127 2.095-2.473 2.534-4.066.365-1.327.358-2.674.117-4.026-.162-.895-.28-1.798-.42-2.696-.182-1.177-.342-2.358-.557-3.53-.188-1.016-1.241-1.665-2.354-1.516-.452.062-.886.224-1.363.072-.614-.195-1.097-.836-1.075-1.513.024-.702.502-1.361 1.138-1.454.703-.101 1.427-.233 2.125-.17 1.977.176 3.415 1.199 4.196 2.996.292.673.403 1.432.535 2.162.24 1.332.443 2.67.648 4.007.14.92.396 1.794.933 2.571.659.954 1.592 1.466 2.738 1.608.347.043.703.044 1.054.044 5.876.002 11.753.002 17.628 0 .68 0 1.361 0 2.001-.306.808-.385 1.363-1.017 1.783-1.765.777-1.383 1.32-2.837 1.45-4.438.09-1.087.261-2.172.475-3.242.296-1.487 1.187-2.574 2.522-3.312 1.407-.778 2.883-.752 4.377-.321.811.234 1.177 1.268.807 2.043-.38.798-1.19 1.077-2.068.8-.924-.292-2.12.238-2.438 1.301-.164.547-.233 1.122-.321 1.689-.291 1.861-.6 3.72-.845 5.588-.255 1.946.181 3.76 1.237 5.43.718 1.134 1.666 2.061 2.717 2.89a12.371 12.371 0 0 1 3.755 4.887 17.937 17.937 0 0 1 1.229 4.125c.313 1.846.568 3.7.898 5.544.247 1.382.512 2.769.88 4.122.335 1.224.915 2.355 2.04 3.09.388.254.825.447 1.259.62.333.133.437.037.534-.31.267-.97.562-1.931.81-2.906.217-.85.423-1.704.572-2.566.228-1.312.412-2.63.596-3.95.316-2.27.36-4.554.35-6.842a45.253 45.253 0 0 0-.43-6.026 59.137 59.137 0 0 0-.808-4.471 53.583 53.583 0 0 0-1.127-4.33c-.434-1.404-.96-2.78-1.493-4.152-.38-.978-.842-1.923-1.252-2.888-.303-.714-.104-1.44.478-1.866.574-.418 1.48-.412 2.012.093.272.257.462.627.612.978.684 1.602 1.404 3.192 1.989 4.828a48.356 48.356 0 0 1 1.412 4.753c.427 1.743.754 3.512 1.07 5.278.684 3.827.836 7.692.622 11.56-.117 2.094-.387 4.184-.706 6.26-.251 1.631-.645 3.246-1.043 4.852-.298 1.205-.704 2.385-1.065 3.574-.197.65-.71 1-1.287 1.267-1.79.825-3.667 1.344-5.653 1.354-2.914.013-5.195-1.164-6.75-3.626-.704-1.114-1.117-2.336-1.439-3.601-.559-2.205-1.2-4.384-2.452-6.33-.463-.718-.995-1.382-1.821-1.728-.177-.074-.42-.127-.586-.069-1.05.372-2.127.483-3.239.48-7.086-.012-14.172-.009-21.26-.002-.935 0-1.828-.178-2.713-.462-.19-.061-.46-.025-.643.066-1.134.57-1.776 1.58-2.34 2.644-.83 1.571-1.37 3.246-1.798 4.96-.322 1.29-.69 2.568-1.373 3.735-.912 1.56-2.149 2.766-3.87 3.414-1.247.472-2.553.594-3.89.47-1.763-.166-3.412-.671-4.994-1.44-.65-.314-.971-.832-1.158-1.487-.327-1.155-.701-2.296-1.012-3.456a42.56 42.56 0 0 1-.62-2.754C.963 42.2.72 41.01.562 39.81c-.183-1.395-.296-2.8-.4-4.204C.08 34.516.058 33.42-.006 31.91l.005.01Zm9.853 17.287.062.13c.386-.057.775-.094 1.157-.171 1.41-.281 2.413-1.073 3.027-2.355.44-.916.661-1.895.919-2.869.478-1.81 1.058-3.589 1.896-5.274.574-1.152 1.252-2.234 2.193-3.137.322-.31.302-.285-.002-.624-.559-.623-1.144-1.235-1.61-1.925-.437-.65-.075-1.672.607-2.027.797-.416 1.713-.177 2.166.539 1.186 1.872 2.89 3.033 5.136 3.05 7.36.06 14.723.034 22.085.004.664-.003 1.35-.2 1.981-.425 1.323-.47 2.314-1.369 3.09-2.52.536-.795 1.356-.912 2.088-.595.913.396 1.184 1.471.573 2.302-.474.646-1.018 1.243-1.551 1.846-.157.178-.172.289 0 .454.282.272.564.547.811.85 1.203 1.48 1.995 3.18 2.601 4.957.49 1.432.833 2.91 1.273 4.36.312 1.026.797 1.967 1.63 2.695.8.696 1.725 1.06 2.802.996.105-.007.202-.1.303-.152-.046-.08-.078-.174-.143-.235-1.274-1.222-2.053-2.732-2.463-4.402-.373-1.522-.616-3.076-.884-4.621-.26-1.504-.468-3.015-.718-4.52a16.45 16.45 0 0 0-1.054-3.64c-.715-1.716-1.775-3.167-3.28-4.303-1.967-1.485-3.39-3.367-4.184-5.692-.129-.375-.246-.754-.381-1.168-.143.09-.254.154-.36.226-1.141.778-2.386 1.196-3.794 1.192-5.997-.016-11.994-.006-17.992-.006-.165 0-.33-.004-.496.003-1.506.076-2.895-.286-4.156-1.1-.237-.153-.338-.097-.432.145-.295.755-.557 1.527-.919 2.25-.762 1.521-1.814 2.833-3.187 3.872-1.258.951-2.265 2.096-2.992 3.488-.874 1.672-1.37 3.462-1.71 5.293-.278 1.49-.48 2.993-.698 4.492-.235 1.62-.518 3.224-1.065 4.776-.47 1.333-1.116 2.56-2.132 3.575-.078.078-.135.177-.2.266h.003Z"/><path d="M17.484.583c1.895.066 3.416.563 4.79 1.452.574.372 1.103.573 1.817.46a43.5 43.5 0 0 1 3.836-.403c2.303-.153 4.61-.311 6.916-.363a96.278 96.278 0 0 1 6.4.082c1.867.082 3.727.284 5.588.45.93.084 1.855.214 2.786.301a.711.711 0 0 0 .45-.143A8.768 8.768 0 0 1 52.953.973 8.61 8.61 0 0 1 57.127.81c.796.162 1.596.3 2.395.448l2.234.414c.476.087.952.168 1.426.259.927.177 1.363.879 1.17 1.876-.153.794-.917 1.3-1.75 1.136-1.42-.278-2.832-.603-4.258-.85-1.056-.182-2.093-.5-3.191-.425-1.262.085-2.353.549-3.342 1.304-.35.267-.738.493-1.133.69-.173.086-.412.088-.613.065-1.571-.182-3.14-.39-4.711-.57a50.013 50.013 0 0 0-2.333-.2c-4.341-.291-8.685-.307-13.025.006-1.731.125-3.458.323-5.184.503-.569.059-1.132.16-1.695.252-.528.087-1-.021-1.424-.347-.773-.594-1.594-1.116-2.528-1.429-.716-.24-1.447-.319-2.206-.161-1.074.224-2.156.405-3.236.605-.767.142-1.533.281-2.298.43-.606.117-1.066-.167-1.465-.548-.362-.345-.497-.793-.362-1.281.196-.71.619-1.125 1.412-1.245 1.4-.212 2.781-.526 4.174-.78.842-.154 1.69-.278 2.301-.378l-.001-.002ZM13.938 21.672c0 .281-.016.564.003.845.053.803-.75 1.51-1.416 1.512-.786.004-1.543-.653-1.581-1.447a26.32 26.32 0 0 1-.008-1.885c.006-.276-.097-.354-.365-.347-.626.013-1.254.015-1.88-.004-.64-.02-1.32-.589-1.457-1.185-.157-.688.1-1.33.734-1.652.27-.138.607-.18.918-.201.493-.033.99-.025 1.484-.004.313.013.402-.112.394-.401a36.472 36.472 0 0 1-.002-1.657c.014-.8.566-1.454 1.356-1.62.803-.17 1.763.563 1.806 1.406.03.628.023 1.256.01 1.884-.005.286.11.388.387.383.495-.01.992.014 1.485-.004.9-.036 1.402.701 1.489 1.287.119.793-.313 1.538-1.048 1.729-.29.075-.61.036-.919.041-.351.005-.704.013-1.055-.001-.262-.01-.35.095-.338.345.016.324.005.65.005.975h-.002v.001ZM62.079 22.401a1.57 1.57 0 0 1-1.556 1.566c-.852.007-1.604-.731-1.604-1.575 0-.856.723-1.548 1.614-1.542.889.005 1.546.665 1.544 1.551h.002ZM65.758 18.865c0 .874-.666 1.538-1.555 1.546-.877.01-1.607-.695-1.611-1.552-.004-.828.725-1.545 1.582-1.555a1.547 1.547 0 0 1 1.584 1.56ZM60.525 16.894c-.883.004-1.612-.703-1.606-1.556.007-.837.734-1.555 1.58-1.563a1.564 1.564 0 0 1 1.58 1.54c.01.9-.654 1.575-1.554 1.579ZM56.838 17.322c.881 0 1.588.7 1.582 1.569-.006.85-.709 1.536-1.578 1.538a1.556 1.556 0 0 1-1.58-1.567 1.56 1.56 0 0 1 1.576-1.54ZM46.166 33.187c-.198.01-.396.035-.592.023-.86-.046-1.448-.765-1.37-1.658.08-.906.802-1.48 1.727-1.373.739.084 1.341-.208 1.686-.819.41-.726.14-1.628-.609-2.041-.757-.417-1.653-.213-2.052.52-.15.275-.206.627-.217.947-.034 1.043-.885 1.705-1.84 1.545-.983-.164-1.422-1.023-1.277-1.902.17-1.032.442-2.007 1.174-2.802 1.169-1.265 2.608-1.778 4.328-1.508 1.496.236 2.633.99 3.357 2.3.597 1.08.653 2.229.324 3.4-.382 1.36-1.246 2.328-2.524 2.953-.508.247-1.208.39-2.115.414v.001ZM26.405 24.028c2.107.107 3.877 1.36 4.478 3.338.227.747.2 1.386-.444 1.904-.851.685-2.14.29-2.445-.747-.132-.449-.26-.895-.666-1.197-.698-.52-1.763-.33-2.263.407a1.515 1.515 0 0 0 .518 2.145c.324.18.723.22 1.082.344.662.229 1.122.807 1.115 1.459-.007.664-.335 1.165-.969 1.412-.209.082-.48.091-.703.046-1.58-.326-2.76-1.177-3.45-2.636-1.01-2.132-.208-4.638 1.814-5.825a4.724 4.724 0 0 1 1.932-.648l.002-.002ZM36.376 26.832c-.78 0-1.562-.03-2.34.008-.9.043-1.44-.885-1.448-1.571-.008-.685.688-1.487 1.456-1.472 1.56.028 3.121.005 4.682.01.86.003 1.468.647 1.472 1.537a1.451 1.451 0 0 1-1.447 1.488H36.376Z"/></g><defs><clipPath id="a"><path fill="#fff" transform="translate(0 .583)" d="M0 0h73v52H0z"/></clipPath></defs></svg>
